X: 16861
T: Haste To The Wedding
R: jig
M: 6/8
K: Dmajor
BAD DAG|BAD DAG|BAD DAG|BAD DAG|
BAD DAG|BAD DAG|BAD DAG|BAD DAG:|
|:bad dag|bad dag|bad dag|bad dag|
bad dag|bad dag|bad dag|bad dag:|

